X:295
T: Tailor's Twist, The
M: C|
R: hornpipe
S: Noel Hill
K: D
FE| DA,FD AFdc| Bged ceag| fedc Bged| ceBe AF (3GFE|
|   DAFD AFdc| Bged ceag| fedc Bgec| d2dc d2 :|
|: fg|~a2 af dfaf| bagf eAce| ~g2gA (3Bcd ef| gbfg egfe|
|  ~d2 ec dDFA| Bged ceag| fedc Bgec| d2dc d2:|
